minus-network.svg

<svg fill="currentColor" viewBox="0 0 24 24"><path d="M16 11V9H8v2zm1-8a2 2 0 0 1 2 2v10a2 2 0 0 1-2 2h-4v2h1a1 1 0 0 1 1 1h7v2h-7a1 1 0 0 1-1 1h-4a1 1 0 0 1-1-1H2v-2h7a1 1 0 0 1 1-1h1v-2H7a2 2 0 0 1-2-2V5a2 2 0 0 1 2-2z"/></svg>

<svg  viewBox="0 0 24 24" fill="currentColor"><path  d="M16,11V9H8V11H16M17,3A2,2 0 0,1 19,5V15A2,2 0 0,1 17,17H13V19H14A1,1 0 0,1 15,20H22V22H15A1,1 0 0,1 14,23H10A1,1 0 0,1 9,22H2V20H9A1,1 0 0,1 10,19H11V17H7C5.89,17 5,16.1 5,15V5A2,2 0 0,1 7,3H17Z"/></svg>
